X: 177
T: The Devil's Dream
P: Longways for as many as will
%R: jig
B: "The Dancing-Master: Containing Directions and Tunes for Dancing" printed by W. Pearson for John Walsh, London ca. 1709
S: 7: DMDfD http://digital.nls.uk/special-collections-of-printed-music/pageturner.cfm?id=89751228 p.72
Z: 2013 John Chambers <jc:trillian.mit.edu>
M: 6/4
L: 1/4
K: Gdor
% - - - - - - - - - - - - - - - - - - - - - - - - -
[|\
G3 G2A | ^F>EF G2G | A2B cdA | B3- B2 ][ d |\
c2d c2d | c2d c>BA | BAG ^F>EF | G3- G2 |]
% - - - - - - - - - - - - - - - - - - - - - - - - -
%%begintext align
%% Lead up and fall back .| That again :| Set to your own and fall back .| That again :|
%%endtext
%%sep 1 1 300
%%begintext align
%% The 1. cu. take hands and meet the 2. cu. and the 1. man take hands with the 2. man, and the 1. wo. with the 2 wo.
%% and fall back from your own :| Two first men meet their we. and change places with them .:|
%%endtext
%%sep 1 1 300
%%begintext align
%% The 1. man change places with the 2. wo. :| and 1. wo. with the 2. man :| And turn S. Do this to all, the rest following .:|
%%endtext
%%sep 1 1 300
%%begintext align
%% The 1. man take hands with the 2. man, and the 1. wo. with the 2. wo. the 1. man pull up the 2. man, and the 2. wo. put
%% back the 1. wo. then the 1. wo. fall back against the 2. man's back :| Then the 1. man put back the second man on the
%% co. side, and the second wo. put back the first wo. on the co. side, and fall back :| Then the two men and two we. change
%% places and fall back :| Then meet your own from each other, and change places. Do this to all the rest.
%%endtext
%%sep 1 1 300
%%begintext align
%% The 1. cu. meet the 2 cu. and take hands, and fall back on the out-side of them :| Then lead up all a-breast and fall back :|
%% Then take hands round all four and go half round . Then meet your own and change places .| The rest doing the like .:|
%% [DMDfD]
%%endtext
%%sep 1 8 500

%%sep 1 1 500
%%sep 1 1 500
